src/assets/icons/icon-menu-gear.svg

<svg width="20" height="21" viewBox="0 0 20 21" fill="none" xmlns="http://www.w3.org/2000/svg">
<path fill-rule="evenodd" clip-rule="evenodd" d="M10.2672 0.000549316C10.9832 0.000549316 11.6792 0.294549 12.1782 0.805549C12.6762 1.31955 12.9512 2.02455 12.9302 2.73955C12.9322 2.90055 12.9852 3.08655 13.0812 3.24955C13.2402 3.51955 13.4912 3.70955 13.7892 3.78755C14.0872 3.86155 14.3992 3.82155 14.6642 3.66455C15.9442 2.93355 17.5732 3.37155 18.3042 4.64155L18.9272 5.72055C18.9432 5.74955 18.9572 5.77755 18.9692 5.80655C19.6312 7.05755 19.1892 8.63255 17.9592 9.35155C17.7802 9.45455 17.6352 9.59855 17.5352 9.77255C17.3802 10.0415 17.3372 10.3616 17.4152 10.6556C17.4952 10.9556 17.6862 11.2045 17.9552 11.3585C18.5622 11.7075 19.0152 12.2955 19.1962 12.9745C19.3772 13.6525 19.2782 14.3885 18.9252 14.9955L18.2612 16.1015C17.5302 17.3575 15.9012 17.7925 14.6342 17.0605C14.4652 16.9635 14.2702 16.9105 14.0762 16.9056H14.0702C13.7812 16.9056 13.4842 17.0285 13.2682 17.2435C13.0492 17.4625 12.9292 17.7546 12.9312 18.0646C12.9242 19.5336 11.7292 20.7215 10.2672 20.7215H9.0142C7.5452 20.7215 6.3502 19.5275 6.3502 18.0585C6.3482 17.8776 6.2962 17.6896 6.1992 17.5266C6.0422 17.2526 5.7882 17.0565 5.4952 16.9785C5.2042 16.9006 4.8852 16.9436 4.6232 17.0956C3.9952 17.4456 3.2562 17.5306 2.5802 17.3405C1.9052 17.1495 1.3222 16.6855 0.980198 16.0705L0.355198 14.9935C-0.375802 13.7255 0.0591977 12.1005 1.3252 11.3685C1.6842 11.1615 1.9072 10.7755 1.9072 10.3615C1.9072 9.94755 1.6842 9.56055 1.3252 9.35355C0.0581977 8.61755 -0.375802 6.98855 0.354198 5.72055L1.0322 4.60755C1.7532 3.35355 3.3832 2.91155 4.6542 3.64155C4.8272 3.74455 5.0152 3.79655 5.2062 3.79855C5.8292 3.79855 6.3502 3.28455 6.3602 2.65255C6.3562 1.95555 6.6312 1.28655 7.1322 0.781549C7.6352 0.277549 8.3032 0.000549316 9.0142 0.000549316H10.2672ZM10.2672 1.50055H9.0142C8.7042 1.50055 8.4142 1.62155 8.1952 1.83955C7.9772 2.05855 7.8582 2.34955 7.8602 2.65955C7.8392 4.12155 6.6442 5.29855 5.1972 5.29855C4.7332 5.29355 4.2862 5.16855 3.8982 4.93655C3.3532 4.62655 2.6412 4.81755 2.3222 5.37255L1.6452 6.48555C1.3352 7.02355 1.5252 7.73455 2.0772 8.05555C2.8962 8.52955 3.4072 9.41355 3.4072 10.3615C3.4072 11.3095 2.8962 12.1925 2.0752 12.6675C1.5262 12.9855 1.3362 13.6925 1.6542 14.2425L2.2852 15.3305C2.4412 15.6115 2.6962 15.8145 2.9912 15.8975C3.2852 15.9795 3.6092 15.9445 3.8792 15.7945C4.2762 15.5616 4.7382 15.4405 5.2022 15.4405C5.4312 15.4405 5.6602 15.4695 5.8842 15.5295C6.5602 15.7115 7.1472 16.1635 7.4952 16.7705C7.7212 17.1516 7.8462 17.5965 7.8502 18.0506C7.8502 18.7006 8.3722 19.2215 9.0142 19.2215H10.2672C10.9062 19.2215 11.4282 18.7036 11.4312 18.0646C11.4272 17.3586 11.7032 16.6875 12.2082 16.1826C12.7062 15.6846 13.4022 15.3855 14.0982 15.4056C14.5542 15.4165 14.9932 15.5395 15.3802 15.7596C15.9372 16.0786 16.6482 15.8885 16.9702 15.3385L17.6342 14.2315C17.7822 13.9765 17.8252 13.6565 17.7462 13.3615C17.6682 13.0665 17.4722 12.8105 17.2082 12.6595C16.5902 12.3035 16.1492 11.7295 15.9662 11.0415C15.7852 10.3665 15.8842 9.62955 16.2372 9.02255C16.4672 8.62255 16.8042 8.28555 17.2082 8.05355C17.7502 7.73655 17.9402 7.02755 17.6252 6.47555C17.6122 6.45355 17.6002 6.43055 17.5902 6.40655L17.0042 5.39055C16.6852 4.83555 15.9752 4.64455 15.4182 4.96155C14.8162 5.31755 14.1002 5.41955 13.4122 5.23855C12.7252 5.06055 12.1492 4.62555 11.7902 4.01155C11.5602 3.62755 11.4352 3.18055 11.4312 2.72555C11.4402 2.38355 11.3202 2.07655 11.1022 1.85155C10.8852 1.62755 10.5802 1.50055 10.2672 1.50055ZM9.6451 6.97465C11.5121 6.97465 13.0311 8.49465 13.0311 10.3616C13.0311 12.2286 11.5121 13.7466 9.6451 13.7466C7.7781 13.7466 6.2591 12.2286 6.2591 10.3616C6.2591 8.49465 7.7781 6.97465 9.6451 6.97465ZM9.6451 8.47465C8.6051 8.47465 7.7591 9.32165 7.7591 10.3616C7.7591 11.4016 8.6051 12.2466 9.6451 12.2466C10.6851 12.2466 11.5311 11.4016 11.5311 10.3616C11.5311 9.32165 10.6851 8.47465 9.6451 8.47465Z" fill="url(#paint0_linear_7998_475)"/>
<defs>
<linearGradient id="paint0_linear_7998_475" x1="-0.00012207" y1="10.361" x2="19.2848" y2="10.361" gradientUnits="userSpaceOnUse">
<stop stop-color="#02AAB0"/>
<stop offset="1" stop-color="#00CDAC"/>
</linearGradient>
</defs>
</svg>

<svg xmlns="http://www.w3.org/2000/svg" fill="none" viewBox="0 0 20 21"><path fill="url(#a)" fill-rule="evenodd" d="M10.267 0c.716 0 1.412.295 1.911.806.498.514.773 1.219.752 1.934.002.16.055.347.151.51a1.157 1.157 0 0 0 1.583.415 2.67 2.67 0 0 1 3.64.977l.623 1.079a.85.85 0 0 1 .042.086 2.673 2.673 0 0 1-1.01 3.545 1.142 1.142 0 0 0-.424.42 1.174 1.174 0 0 0-.12.884c.08.3.271.548.54.702a2.67 2.67 0 0 1 1.241 1.617 2.674 2.674 0 0 1-.27 2.02l-.665 1.107a2.665 2.665 0 0 1-3.627.959 1.19 1.19 0 0 0-.558-.155h-.006c-.289 0-.586.123-.802.338a1.144 1.144 0 0 0-.337.82 2.67 2.67 0 0 1-2.664 2.657H9.014a2.666 2.666 0 0 1-2.664-2.663 1.076 1.076 0 0 0-.15-.531 1.158 1.158 0 0 0-.705-.549 1.157 1.157 0 0 0-.872.118 2.705 2.705 0 0 1-2.043.244 2.681 2.681 0 0 1-1.6-1.27l-.625-1.077a2.658 2.658 0 0 1 .97-3.625c.36-.207.582-.593.582-1.007 0-.413-.223-.8-.582-1.007a2.668 2.668 0 0 1-.97-3.633l.677-1.113c.721-1.254 2.351-1.696 3.622-.966.173.103.361.155.552.157.623 0 1.144-.514 1.154-1.146A2.63 2.63 0 0 1 7.132.782 2.64 2.64 0 0 1 9.014 0h1.253Zm0 1.5H9.014A1.153 1.153 0 0 0 7.86 2.66a2.677 2.677 0 0 1-2.663 2.639 2.58 2.58 0 0 1-1.299-.362 1.165 1.165 0 0 0-1.576.436l-.677 1.113c-.31.538-.12 1.249.432 1.57a2.674 2.674 0 0 1 1.33 2.306c0 .947-.51 1.83-1.332 2.306a1.155 1.155 0 0 0-.42 1.575l.63 1.088c.156.28.411.484.706.567.294.082.618.046.888-.104a2.626 2.626 0 0 1 1.323-.354 2.633 2.633 0 0 1 2.293 1.33c.226.382.351.826.355 1.28 0 .65.522 1.171 1.164 1.171h1.253c.64 0 1.161-.517 1.164-1.156a2.628 2.628 0 0 1 .777-1.882c.498-.498 1.194-.797 1.89-.777.456.01.895.133 1.282.354a1.17 1.17 0 0 0 1.59-.421l.664-1.107a1.157 1.157 0 0 0-.426-1.572 2.637 2.637 0 0 1-1.242-1.619 2.67 2.67 0 0 1 .271-2.018c.23-.4.567-.737.971-.97a1.166 1.166 0 0 0 .417-1.577.558.558 0 0 1-.035-.07l-.586-1.015a1.165 1.165 0 0 0-1.586-.43 2.616 2.616 0 0 1-2.006.278 2.63 2.63 0 0 1-1.622-1.227 2.554 2.554 0 0 1-.359-1.286 1.193 1.193 0 0 0-.329-.874 1.168 1.168 0 0 0-.835-.351Zm-.622 5.475a3.39 3.39 0 0 1 3.386 3.387 3.389 3.389 0 0 1-3.386 3.385 3.389 3.389 0 0 1-3.386-3.385 3.39 3.39 0 0 1 3.386-3.387Zm0 1.5a1.887 1.887 0 1 0 1.886 1.887c0-1.04-.846-1.887-1.886-1.887Z" clip-rule="evenodd"/><defs><linearGradient id="a" x1="0" x2="19.285" y1="10.361" y2="10.361" gradientUnits="userSpaceOnUse"><stop stop-color="#02AAB0"/><stop offset="1" stop-color="#00CDAC"/></linearGradient></defs></svg>
